X:147
T:Polska efter Blomgren
R:sl\"angpolska
H:efter Johan Christian Blomgren, H\"asslunda
A:Sk{\aa}ne
Z:id:hn-sp-147
M:3/4
L:1/16
K:D
D2DF E2EG F2E2 | DEFG ABcA d4 | f2fa g2f2 e2d2 | cdef edcB AGFE |
D2DF E2EG F2E2 | DEFG ABcA d4 | f2fa g2f2 e2d2 | cdec d8 :|
|: f2fa g2gb a2c2 | d2f2 efge f2d2 | f2fa g2gb a2c2 | d2f2 efge d4 |
D2DF E2EG F2E2 | DEFG ABcA d4 | f2fa g2f2 e2d2 | cdec d8 :|
<end>
<start>
